X:1
T:Title
L:1/8
M:4/4
I:linebreak $
K:D
V:1 treble nm="Voice"
V:1
"D" FAAA Dddd |"G" Bddd"D" A2 AA |"G" GBAG"D" FAGF |"A" EDCB,"D" A,AAA |"D" FAAA Dddd | %5
"G" Bddd"D" A2 dd |"G" Bcde"D" fd"A"cB |1"D" Agfe dAAA :|2"D" Agfe d2 dd |:"Bm" fFFF Fddd | %10
"A" cedc"Bm" B2 cd |"A" eEEE"E" EF^GA | B^GAB"A" c2 de |"Bm" fFFF Fddd |"A" cedc"Bm" B2 BB | %15
 ABBB"E" ^GBBB |"Em" GBAG"Bm" F4 :| %17
